X: 1
T: Ridee
M: 3/2
L: 1/8
R: three-two
K: Bmin
|: f | fB f2 ef | gf ed cB | cd ef e2 | ce dc B :||
B|fB cd B2 | gB cd B2 | AB cd ed | ce dc cB |
fB cd B2 | gB cd B2 | AB cd ed | ce dc B2 ||
